build/img/sprites/Notepad.svg

<svg width="54" height="54" viewBox="0 0 54 54" fill="none" xmlns="http://www.w3.org/2000/svg">
<path d="M35.4375 27C35.4375 27.4476 35.2597 27.8768 34.9432 28.1932C34.6268 28.5097 34.1976 28.6875 33.75 28.6875H20.25C19.8024 28.6875 19.3732 28.5097 19.0568 28.1932C18.7403 27.8768 18.5625 27.4476 18.5625 27C18.5625 26.5524 18.7403 26.1232 19.0568 25.8068C19.3732 25.4903 19.8024 25.3125 20.25 25.3125H33.75C34.1976 25.3125 34.6268 25.4903 34.9432 25.8068C35.2597 26.1232 35.4375 26.5524 35.4375 27ZM33.75 32.0625H20.25C19.8024 32.0625 19.3732 32.2403 19.0568 32.5568C18.7403 32.8732 18.5625 33.3024 18.5625 33.75C18.5625 34.1976 18.7403 34.6268 19.0568 34.9432C19.3732 35.2597 19.8024 35.4375 20.25 35.4375H33.75C34.1976 35.4375 34.6268 35.2597 34.9432 34.9432C35.2597 34.6268 35.4375 34.1976 35.4375 33.75C35.4375 33.3024 35.2597 32.8732 34.9432 32.5568C34.6268 32.2403 34.1976 32.0625 33.75 32.0625ZM45.5625 8.4375V42.1875C45.5625 43.9777 44.8513 45.6946 43.5855 46.9605C42.3196 48.2263 40.6027 48.9375 38.8125 48.9375H15.1875C13.3973 48.9375 11.6804 48.2263 10.4145 46.9605C9.14866 45.6946 8.4375 43.9777 8.4375 42.1875V8.4375C8.4375 7.98995 8.61529 7.56073 8.93176 7.24426C9.24823 6.92779 9.67745 6.75 10.125 6.75H15.1875V5.0625C15.1875 4.61495 15.3653 4.18572 15.6818 3.86926C15.9982 3.55279 16.4274 3.375 16.875 3.375C17.3226 3.375 17.7518 3.55279 18.0682 3.86926C18.3847 4.18572 18.5625 4.61495 18.5625 5.0625V6.75H25.3125V5.0625C25.3125 4.61495 25.4903 4.18572 25.8068 3.86926C26.1232 3.55279 26.5524 3.375 27 3.375C27.4476 3.375 27.8768 3.55279 28.1932 3.86926C28.5097 4.18572 28.6875 4.61495 28.6875 5.0625V6.75H35.4375V5.0625C35.4375 4.61495 35.6153 4.18572 35.9318 3.86926C36.2482 3.55279 36.6774 3.375 37.125 3.375C37.5726 3.375 38.0018 3.55279 38.3182 3.86926C38.6347 4.18572 38.8125 4.61495 38.8125 5.0625V6.75H43.875C44.3226 6.75 44.7518 6.92779 45.0682 7.24426C45.3847 7.56073 45.5625 7.98995 45.5625 8.4375ZM42.1875 10.125H38.8125V11.8125C38.8125 12.2601 38.6347 12.6893 38.3182 13.0057C38.0018 13.3222 37.5726 13.5 37.125 13.5C36.6774 13.5 36.2482 13.3222 35.9318 13.0057C35.6153 12.6893 35.4375 12.2601 35.4375 11.8125V10.125H28.6875V11.8125C28.6875 12.2601 28.5097 12.6893 28.1932 13.0057C27.8768 13.3222 27.4476 13.5 27 13.5C26.5524 13.5 26.1232 13.3222 25.8068 13.0057C25.4903 12.6893 25.3125 12.2601 25.3125 11.8125V10.125H18.5625V11.8125C18.5625 12.2601 18.3847 12.6893 18.0682 13.0057C17.7518 13.3222 17.3226 13.5 16.875 13.5C16.4274 13.5 15.9982 13.3222 15.6818 13.0057C15.3653 12.6893 15.1875 12.2601 15.1875 11.8125V10.125H11.8125V42.1875C11.8125 43.0826 12.1681 43.941 12.801 44.574C13.4339 45.2069 14.2924 45.5625 15.1875 45.5625H38.8125C39.7076 45.5625 40.566 45.2069 41.199 44.574C41.8319 43.941 42.1875 43.0826 42.1875 42.1875V10.125Z" fill="#78213A"/>
</svg>

<svg width="54" height="54" viewBox="0 0 54 54" fill="none" xmlns="http://www.w3.org/2000/svg"><path d="M35.438 27a1.687 1.687 0 01-1.688 1.688h-13.5a1.687 1.687 0 110-3.375h13.5A1.687 1.687 0 0135.438 27zm-1.688 5.063h-13.5a1.687 1.687 0 100 3.374h13.5a1.687 1.687 0 100-3.374zM45.563 8.436v33.75a6.75 6.75 0 01-6.75 6.75H15.186a6.75 6.75 0 01-6.75-6.75V8.438a1.687 1.687 0 011.688-1.687h5.063V5.062a1.687 1.687 0 113.374 0V6.75h6.75V5.062a1.687 1.687 0 113.375 0V6.75h6.75V5.062a1.687 1.687 0 113.376 0V6.75h5.062a1.687 1.687 0 011.688 1.688zm-3.376 1.688h-3.374v1.688a1.687 1.687 0 11-3.376 0v-1.688h-6.75v1.688a1.687 1.687 0 11-3.375 0v-1.688h-6.75v1.688a1.687 1.687 0 11-3.375 0v-1.688h-3.374v32.063a3.375 3.375 0 003.374 3.374h23.626a3.375 3.375 0 003.374-3.374V10.124z" fill="#78213A"/></svg>
